icons/svg/poi_colored/tower_bell_tower.svg

<?xml version="1.0" encoding="UTF-8" standalone="no"?>
<!-- Created with Inkscape (http://www.inkscape.org/) -->

<svg
   xmlns:dc="http://purl.org/dc/elements/1.1/"
   xmlns:cc="http://creativecommons.org/ns#"
   xmlns:rdf="http://www.w3.org/1999/02/22-rdf-syntax-ns#"
   xmlns:svg="http://www.w3.org/2000/svg"
   xmlns="http://www.w3.org/2000/svg"
   xmlns:sodipodi="http://sodipodi.sourceforge.net/DTD/sodipodi-0.dtd"
   xmlns:inkscape="http://www.inkscape.org/namespaces/inkscape"
   version="1.0"
   width="580"
   height="580"
   id="svg2"
   sodipodi:version="0.32"
   inkscape:version="0.48.4 r9939"
   sodipodi:docname="tower_bell_tower.svg.2015_02_06_21_37_45.0.svg"
   inkscape:output_extension="org.inkscape.output.svg.inkscape">
  <metadata
     id="metadata10">
    <rdf:RDF>
      <cc:Work
         rdf:about="">
        <dc:format>image/svg+xml</dc:format>
        <dc:type
           rdf:resource="http://purl.org/dc/dcmitype/StillImage" />
        <cc:license
           rdf:resource="http://web.resource.org/cc/PublicDomain" />
        <dc:language>en</dc:language>
        <dc:title></dc:title>
      </cc:Work>
    </rdf:RDF>
  </metadata>
  <sodipodi:namedview
     inkscape:window-height="1004"
     inkscape:window-width="1920"
     inkscape:pageshadow="2"
     inkscape:pageopacity="0.0"
     guidetolerance="10.0"
     gridtolerance="10.0"
     objecttolerance="10.0"
     borderopacity="1.0"
     bordercolor="#666666"
     pagecolor="#ffffff"
     id="base"
     showgrid="false"
     inkscape:zoom="0.35355339"
     inkscape:cx="295.45439"
     inkscape:cy="539.04294"
     inkscape:window-x="1680"
     inkscape:window-y="0"
     inkscape:current-layer="svg2"
     showguides="true"
     inkscape:guide-bbox="true"
     inkscape:window-maximized="1">
    <inkscape:grid
       type="xygrid"
       id="grid3128" />
  </sodipodi:namedview>
  <defs
     id="defs4">
    <inkscape:perspective
       sodipodi:type="inkscape:persp3d"
       inkscape:vp_x="0 : 290 : 1"
       inkscape:vp_y="0 : 1000 : 0"
       inkscape:vp_z="580 : 290 : 1"
       inkscape:persp3d-origin="290 : 193.33333 : 1"
       id="perspective12" />
    <style
       type="text/css"
       id="style6">
   
    .fil0 {fill:#EF7900}
   
  </style>
    <inkscape:perspective
       id="perspective6807"
       inkscape:persp3d-origin="29.116032 : 19.410688 : 1"
       inkscape:vp_z="58.232063 : 29.116032 : 1"
       inkscape:vp_y="0 : 1000 : 0"
       inkscape:vp_x="0 : 29.116032 : 1"
       sodipodi:type="inkscape:persp3d" />
    <inkscape:perspective
       id="perspective6954"
       inkscape:persp3d-origin="290 : 193.33333 : 1"
       inkscape:vp_z="580 : 290 : 1"
       inkscape:vp_y="0 : 1000 : 0"
       inkscape:vp_x="0 : 290 : 1"
       sodipodi:type="inkscape:persp3d" />
    <inkscape:perspective
       id="perspective2541"
       inkscape:persp3d-origin="240 : 160 : 1"
       inkscape:vp_z="480 : 240 : 1"
       inkscape:vp_y="0 : 1000 : 0"
       inkscape:vp_x="0 : 240 : 1"
       sodipodi:type="inkscape:persp3d" />
    <inkscape:perspective
       id="perspective2750"
       inkscape:persp3d-origin="215 : 143.33333 : 1"
       inkscape:vp_z="430 : 215 : 1"
       inkscape:vp_y="0 : 1000 : 0"
       inkscape:vp_x="0 : 215 : 1"
       sodipodi:type="inkscape:persp3d" />
    <inkscape:perspective
       id="perspective2830"
       inkscape:persp3d-origin="0.5 : 0.33333333 : 1"
       inkscape:vp_z="1 : 0.5 : 1"
       inkscape:vp_y="0 : 1000 : 0"
       inkscape:vp_x="0 : 0.5 : 1"
       sodipodi:type="inkscape:persp3d" />
  </defs>
  <g
     id="g1327">
    <path
       d="M 66.275,1.768 C 24.94,1.768 1.704,23.139 1.704,66.804 L 1.704,516.927 C 1.704,557.771 22.598,579.156 63.896,579.156 L 515.92,579.156 C 557.227,579.156 578.149,558.84 578.149,516.927 L 578.149,66.804 C 578.149,24.203 557.227,1.768 514.627,1.768 C 514.624,1.768 66.133,1.625 66.275,1.768 z"
       style="fill:#111111;stroke:#eeeeee;stroke-width:3.40799999"
       id="path1329" />
  </g>
  <path
     inkscape:connector-curvature="0"
     d="m 394.92307,402.88254 c 0,8.71538 -41.96923,18.71588 -104.92307,18.71588 -62.95385,0 -104.92308,-10.63223 -104.92308,-18.71588 0,-11.44615 36.3786,-46.06447 36.3786,-53.69524 0,-8.58462 2.82843,-42.64322 2.82843,-51.22784 0,-28.22431 19.43284,-51.53431 47.67759,-56.36277 0,-0.28615 0,-0.66769 0,-0.868 0,-1.90769 0,-27.03846 0,-27.03846 l 36.07692,0 c 0,0 0,25.13077 0,27.03846 0,0.20031 0,0.58185 0,0.868 28.49473,4.088 47.67759,28.13846 47.67759,56.36277 0,8.58462 2.82843,42.64322 2.82843,51.22784 0,7.63077 36.3786,42.24909 36.3786,53.69524 z M 290,442.34378 c -9.96572,0 -11.44616,-1.06066 -16.21539,-1.06066 -1.90769,2.86154 -2.86154,4.76923 -2.86154,8.58462 0,10.4923 8.58462,19.07692 19.07693,19.07692 10.4923,0 19.07692,-8.58462 19.07692,-19.07692 0,-3.81539 -0.95385,-5.72308 -2.86154,-8.58462 -4.76923,0 -6.24967,1.06066 -16.21538,1.06066 z"
     id="path3"
     style="color:#000000;fill:#ffffff;fill-opacity:1;fill-rule:nonzero;stroke:none;marker:none;visibility:visible;display:inline;overflow:visible;enable-background:accumulate"
     sodipodi:nodetypes="csssscsccscssscsssscss" />
  <path
     inkscape:connector-curvature="0"
     d="m 444.36359,114.13851 0,-10.13321 c 0,-1.3165 0,-2.61254 -5.14545,-3.91882 L 359.42394,87.074544 298.15757,42.933681 c -4.07879,-1.306273 -12.23635,-1.306273 -16.31514,0 l -61.57028,44.262775 -79.49033,12.890024 c -5.14545,1.30628 -5.14545,2.60426 -5.14545,3.91882 l 0,10.13321 -90.363579,55.5038 0.535182,15.47166 488.849137,0 0.0701,-15.47166 z"
     id="path3-3"
     sodipodi:nodetypes="csccccccscccccc"
     style="color:#000000;fill:#ffffff;fill-opacity:1;fill-rule:nonzero;stroke:none;stroke-width:1;marker:none;visibility:visible;display:inline;overflow:visible;enable-background:accumulate" />
  <rect
     style="color:#000000;fill:#ffffff;fill-opacity:1;fill-rule:nonzero;stroke:none;stroke-width:1;marker:none;visibility:visible;display:inline;overflow:visible;enable-background:accumulate"
     id="rect3090"
     width="44.029438"
     height="329.52692"
     x="110.44765"
     y="214.41821" />
  <rect
     style="color:#000000;fill:#ffffff;fill-opacity:1;fill-rule:nonzero;stroke:none;stroke-width:1;marker:none;visibility:visible;display:inline;overflow:visible;enable-background:accumulate"
     id="rect3090-0"
     width="44.029438"
     height="329.52692"
     x="425.52292"
     y="214.41821" />
</svg>

<svg width="580" height="580" viewBox="0 0 580 580" fill="none" xmlns="http://www.w3.org/2000/svg">
<g clip-path="url(#clip0)">
<path d="M66.2751 1.76815C24.9401 1.76815 1.7041 23.1391 1.7041 66.8041V516.927C1.7041 557.771 22.5981 579.156 63.8961 579.156H515.92C557.227 579.156 578.149 558.84 578.149 516.927V66.8041C578.149 24.2031 557.227 1.76815 514.627 1.76815C514.624 1.76815 66.1331 1.62515 66.2751 1.76815Z" fill="#111111" stroke="#EEEEEE" stroke-width="3.408"/>
<path d="M394.923 402.883C394.923 411.598 352.954 421.599 290 421.599C227.046 421.599 185.077 410.966 185.077 402.883C185.077 391.437 221.456 356.818 221.456 349.187C221.456 340.603 224.284 306.544 224.284 297.96C224.284 269.735 243.717 246.425 271.962 241.597C271.962 241.311 271.962 240.929 271.962 240.729C271.962 238.821 271.962 213.69 271.962 213.69H308.038C308.038 213.69 308.038 238.821 308.038 240.729C308.038 240.929 308.038 241.311 308.038 241.597C336.533 245.685 355.716 269.735 355.716 297.96C355.716 306.544 358.544 340.603 358.544 349.187C358.544 356.818 394.923 391.437 394.923 402.883V402.883ZM290 442.344C280.034 442.344 278.554 441.283 273.785 441.283C271.877 444.145 270.923 446.053 270.923 449.868C270.923 460.36 279.508 468.945 290 468.945C300.492 468.945 309.077 460.36 309.077 449.868C309.077 446.053 308.123 444.145 306.215 441.283C301.446 441.283 299.966 442.344 290 442.344V442.344Z" fill="white"/>
<path d="M444.363 114.139V104.005C444.363 102.689 444.363 101.393 439.218 100.087L359.424 87.0747L298.157 42.9338C294.079 41.6275 285.921 41.6275 281.842 42.9338L220.272 87.1966L140.782 100.087C135.636 101.393 135.636 102.691 135.636 104.005V114.139L45.2727 169.642L45.8079 185.114H534.657L534.727 169.642L444.363 114.139Z" fill="white"/>
<path d="M154.477 214.418H110.448V543.945H154.477V214.418Z" fill="white"/>
<path d="M469.552 214.418H425.523V543.945H469.552V214.418Z" fill="white"/>
</g>
<defs>
<clipPath id="clip0">
<path d="M0 0H580V580H0V0Z" fill="white"/>
</clipPath>
</defs>
</svg>
